X: 37636
T: Snow On The Ben
R: waltz
M: 3/4
K: Gmajor
|:D2|B3c BA|G2DGBd|c3d cB|A6|A2 cBAG|F2 FGFE|D2 c3 d|B4D2|
B3 c BA|G2DGBd|c3d cB|A3 B AG|FA dF Ad|Fe dc BA|GG BG dB|G4:|
|:Bd|g3 a gd|g2 bagd|c3d cB|A4 Ac|f2 agfe|d3c AF|G2d2^c2|d4(3def|
g3a gd|g2 bagd|c3d cB|A3B AG|FA dF Ad|Fe dc BA|GB dg fa|g4:|

